images/install/cloud/digitalocean.svg

<svg width="107" height="80" viewBox="0 0 107 80" fill="none" xmlns="http://www.w3.org/2000/svg">
<path d="M53.48 53.5331V43.1528C64.4674 43.1528 72.9963 32.2565 68.7774 20.6924C67.2294 16.4431 63.7997 13.0134 59.5201 11.4654C47.956 7.27685 37.0597 15.7754 37.0597 26.7628H26.7097C26.7097 9.24973 43.646 -4.40863 62.0089 1.32788C70.0218 3.84709 76.4261 10.221 78.9149 18.2339C84.6514 36.5968 70.9931 53.5331 53.48 53.5331Z" fill="#0080FF"/>
<path fill-rule="evenodd" clip-rule="evenodd" d="M53.5104 43.2135H43.1604V32.8635H53.5104V43.2135Z" fill="#0080FF"/>
<path fill-rule="evenodd" clip-rule="evenodd" d="M43.1603 51.1353H35.2385V43.2135H43.1603V51.1353Z" fill="#0080FF"/>
<path fill-rule="evenodd" clip-rule="evenodd" d="M35.2386 43.2135H28.5915V36.5664H35.2386V43.2135Z" fill="#0080FF"/>
<path d="M9.22698 64.0349C7.89149 63.094 6.19179 62.6387 4.24927 62.6387H0V76.1453H4.27962C6.22214 76.1453 7.92184 75.6596 9.25733 74.658C9.98577 74.142 10.5625 73.4136 10.9874 72.503C11.382 71.5925 11.5944 70.4998 11.5944 69.3161C11.5944 68.1324 11.382 67.07 10.9874 66.1595C10.5625 65.2489 9.98577 64.5205 9.22698 64.0349ZM2.48886 64.9151H3.82434C5.31158 64.9151 6.52566 65.2186 7.46657 65.7953C8.49853 66.4327 9.01451 67.6164 9.01451 69.3161C9.01451 71.0765 8.49853 72.3209 7.46657 72.9887C6.58636 73.5654 5.37229 73.8689 3.85469 73.8689H2.48886V64.9151Z" fill="#0080FF"/>
<path d="M14.5386 62.4566C14.1136 62.4566 13.7798 62.6084 13.4763 62.8816C13.2031 63.1547 13.0513 63.4886 13.0513 63.9135C13.0513 64.3385 13.2031 64.6723 13.4763 64.9759C13.7494 65.249 14.1136 65.4008 14.5386 65.4008C14.9331 65.4008 15.2974 65.249 15.6009 64.9759C15.8741 64.7027 16.0258 64.3385 16.0258 63.9135C16.0258 63.4886 15.8741 63.1547 15.6009 62.8816C15.2974 62.6084 14.9331 62.4566 14.5386 62.4566Z" fill="#0080FF"/>
<path d="M15.7224 66.6148H13.3246V76.1453H15.7224V66.6148Z" fill="#0080FF"/>
<path d="M24.4333 67.404C23.7048 66.7666 22.9157 66.372 22.0355 66.372C20.7 66.372 19.6073 66.8273 18.7575 67.7378C17.9076 68.6181 17.4523 69.7714 17.4523 71.1676C17.4523 72.5031 17.8773 73.6565 18.7271 74.567C19.577 75.4472 20.7 75.9025 22.0051 75.9025C22.9157 75.9025 23.7352 75.6597 24.3726 75.1437V75.3562C24.3726 76.1453 24.1601 76.7524 23.7352 77.1773C23.3103 77.6022 22.7336 77.8147 22.0051 77.8147C20.9125 77.8147 20.2144 77.3898 19.3645 76.2364L17.7255 77.8147L17.7559 77.8754C18.1201 78.361 18.6361 78.8466 19.3645 79.3019C20.0626 79.7572 20.9732 80 22.0355 80C23.462 80 24.6154 79.5751 25.4652 78.6949C26.3151 77.8147 26.74 76.6613 26.74 75.2348V66.5845H24.3726V67.404H24.4333ZM23.7959 73.0494C23.371 73.5351 22.8246 73.7475 22.1569 73.7475C21.4588 73.7475 20.9428 73.5047 20.5179 73.0494C20.0929 72.5638 19.9108 71.9568 19.9108 71.198C19.9108 70.4088 20.1233 69.8018 20.5179 69.3161C20.9125 68.8305 21.4891 68.6181 22.1569 68.6181C22.855 68.6181 23.371 68.8609 23.7959 69.3161C24.2208 69.8018 24.4333 70.4392 24.4333 71.198C24.4333 71.9568 24.2208 72.5638 23.7959 73.0494Z" fill="#0080FF"/>
<path d="M31.2321 66.6148H28.8343V76.1453H31.2321V66.6148Z" fill="#0080FF"/>
<path d="M30.0483 62.4566C29.6234 62.4566 29.2895 62.6084 28.986 62.8816C28.7128 63.1547 28.5611 63.4886 28.5611 63.9135C28.5611 64.3385 28.7128 64.6723 28.986 64.9759C29.2592 65.249 29.6234 65.4008 30.0483 65.4008C30.4429 65.4008 30.8071 65.249 31.1106 64.9759C31.3838 64.7027 31.5356 64.3385 31.5356 63.9135C31.5356 63.4886 31.3838 63.1547 31.1106 62.8816C30.8071 62.6084 30.4732 62.4566 30.0483 62.4566Z" fill="#0080FF"/>
<path d="M36.483 64.0349H34.1156V66.6148H32.7498V68.8001H34.1156V72.7459C34.1156 73.9903 34.3584 74.8705 34.844 75.3865C35.3297 75.9025 36.2099 76.1453 37.4239 76.1453C37.8185 76.1453 38.2131 76.1453 38.5773 76.1149H38.6987V73.9296L37.8792 73.9599C37.3025 73.9599 36.9383 73.8689 36.7562 73.6564C36.5741 73.444 36.483 73.019 36.483 72.3817V68.7698H38.7291V66.5844H36.483V64.0349Z" fill="#0080FF"/>
<path d="M52.3569 62.6084H49.9591V76.1453H52.3569V62.6084Z" fill="#0080FF"/>
<path d="M76.5779 72.7458C76.1529 73.2315 75.6977 73.6564 75.3638 73.8689C75.0299 74.0813 74.605 74.2027 74.1194 74.2027C73.4213 74.2027 72.8446 73.9599 72.3893 73.4136C71.934 72.8976 71.6912 72.1995 71.6912 71.4104C71.6912 70.5909 71.934 69.9231 72.3893 69.4071C72.8446 68.8911 73.4213 68.618 74.1194 68.618C74.8782 68.618 75.6977 69.1036 76.3958 69.9231L77.9741 68.4055C76.9421 67.07 75.637 66.4326 74.0587 66.4326C72.7535 66.4326 71.6002 66.9183 70.6593 67.8592C69.7183 68.8001 69.2631 69.9838 69.2631 71.4104C69.2631 72.8369 69.7487 74.0206 70.6593 74.9615C71.6002 75.9024 72.7232 76.3881 74.0587 76.3881C75.7887 76.3881 77.1849 75.6293 78.1562 74.2634L76.5779 72.7458Z" fill="#0080FF"/>
<path d="M86.4421 67.9503C86.1083 67.4647 85.653 67.1005 85.0763 66.8273C84.4996 66.5541 83.8319 66.4024 83.1034 66.4024C81.7679 66.4024 80.6753 66.888 79.8558 67.8593C79.0666 68.8305 78.6417 70.0143 78.6417 71.4408C78.6417 72.8977 79.097 74.0814 79.9468 74.992C80.827 75.9025 81.9804 76.3578 83.4069 76.3578C85.0156 76.3578 86.3511 75.6901 87.3527 74.4153L87.4134 74.3546L85.8351 72.837C85.6833 73.0191 85.4709 73.2012 85.2888 73.3833C85.0459 73.5958 84.8335 73.7779 84.5907 73.8993C84.2264 74.0814 83.8319 74.1725 83.3766 74.1725C82.7088 74.1725 82.1625 73.9904 81.7376 73.5958C81.343 73.2316 81.1002 72.7459 81.0395 72.1389H87.383L87.4134 71.2587C87.4134 70.6516 87.3223 70.0446 87.1706 69.4983C87.0188 68.9519 86.776 68.436 86.4421 67.9503ZM81.1913 70.1964C81.3127 69.7411 81.5251 69.3465 81.8286 69.0733C82.1625 68.7395 82.5874 68.5877 83.0731 68.5877C83.6498 68.5877 84.105 68.7395 84.4086 69.0733C84.6817 69.3769 84.8638 69.7411 84.8942 70.1964H81.1913Z" fill="#0080FF"/>
<path d="M95.6388 67.3433C94.9103 66.7362 93.9087 66.4024 92.6643 66.4024C91.8751 66.4024 91.1163 66.5845 90.4486 66.9184C89.8112 67.2219 89.2042 67.7682 88.8096 68.436L88.84 68.4663L90.3879 69.9232C91.0253 68.9216 91.7234 68.5574 92.6643 68.5574C93.1803 68.5574 93.5749 68.6788 93.9087 68.9519C94.2122 69.2251 94.3943 69.559 94.3943 69.9839V70.4392C93.7873 70.2571 93.2106 70.166 92.6339 70.166C91.4502 70.166 90.479 70.4392 89.7505 70.9855C89.0221 71.5318 88.6578 72.3513 88.6578 73.3833C88.6578 74.2939 88.9614 74.992 89.5987 75.5383C90.2361 76.0543 90.9949 76.3275 91.9055 76.3275C92.8161 76.3275 93.6659 75.9632 94.4551 75.3258V76.115H96.8225V69.9839C96.7314 68.8609 96.3672 67.9503 95.6388 67.3433ZM91.3895 72.5031C91.6627 72.321 92.0573 72.2299 92.5429 72.2299C93.1196 72.2299 93.7266 72.3514 94.364 72.5638V73.5047C93.848 73.9904 93.1499 74.2332 92.3001 74.2332C91.8751 74.2332 91.5716 74.1421 91.3288 73.96C91.1163 73.7779 90.9949 73.5654 90.9949 73.2619C90.9949 72.928 91.1163 72.6852 91.3895 72.5031Z" fill="#0080FF"/>
<path d="M105.958 67.5254C105.291 66.7666 104.35 66.4024 103.166 66.4024C102.225 66.4024 101.436 66.6755 100.859 67.2219V66.6452H98.5222V76.1453H100.92V70.8945C100.92 70.166 101.102 69.5893 101.436 69.1948C101.77 68.8002 102.225 68.5877 102.863 68.5877C103.409 68.5877 103.803 68.7698 104.107 69.134C104.41 69.4983 104.562 70.0143 104.562 70.6213V76.1453H106.96V70.6213C106.96 69.3162 106.626 68.2538 105.958 67.5254Z" fill="#0080FF"/>
<path d="M46.9544 67.3433C46.226 66.7362 45.2244 66.4024 43.9799 66.4024C43.1908 66.4024 42.432 66.5845 41.7642 66.9184C41.1269 67.2219 40.5198 67.7682 40.1252 68.436L40.1556 68.4663L41.7035 69.9232C42.3409 68.9216 43.039 68.5574 43.9799 68.5574C44.4959 68.5574 44.8905 68.6788 45.2244 68.9519C45.5279 69.2251 45.71 69.559 45.71 69.9839V70.4392C45.1029 70.2571 44.5263 70.166 43.9496 70.166C42.7659 70.166 41.7946 70.4392 41.0662 70.9855C40.3377 71.5318 39.9735 72.3513 39.9735 73.3833C39.9735 74.2939 40.277 74.992 40.9144 75.5383C41.5518 76.0543 42.3106 76.3275 43.2211 76.3275C44.1317 76.3275 44.9815 75.9632 45.7707 75.3258V76.115H48.1381V69.9839C48.0471 68.8609 47.6829 67.9503 46.9544 67.3433ZM42.7052 72.5031C42.9783 72.321 43.3729 72.2299 43.8585 72.2299C44.4352 72.2299 45.0422 72.3514 45.6796 72.5638V73.5047C45.1637 73.9904 44.4656 74.2332 43.6157 74.2332C43.1908 74.2332 42.8873 74.1421 42.6444 73.96C42.432 73.7779 42.3106 73.5654 42.3106 73.2619C42.3106 72.928 42.432 72.6852 42.7052 72.5031Z" fill="#0080FF"/>
<path d="M61.068 76.3578C57.2133 76.3578 54.0871 73.2315 54.0871 69.3768C54.0871 65.5222 57.2133 62.3959 61.068 62.3959C64.9227 62.3959 68.049 65.5222 68.049 69.3768C68.049 73.2315 64.9227 76.3578 61.068 76.3578ZM61.068 64.8544C58.5792 64.8544 56.5456 66.888 56.5456 69.3768C56.5456 71.8657 58.5792 73.8993 61.068 73.8993C63.5569 73.8993 65.5905 71.8657 65.5905 69.3768C65.5905 66.888 63.5569 64.8544 61.068 64.8544Z" fill="#0080FF"/>
</svg>

<svg xmlns="http://www.w3.org/2000/svg" fill="none" viewBox="0 0 107 80"><defs/><path fill="#0080FF" d="M53.48 53.533v-10.38c10.987 0 19.516-10.896 15.297-22.46-1.548-4.25-4.977-7.68-9.257-9.228-11.564-4.188-22.46 4.31-22.46 15.298H26.71C26.71 9.25 43.646-4.41 62.009 1.328c8.013 2.52 14.417 8.893 16.906 16.906 5.736 18.363-7.922 35.3-25.435 35.3z"/><path fill="#0080FF" fill-rule="evenodd" d="M53.51 43.214H43.16v-10.35h10.35v10.35zM43.16 51.135H35.24v-7.921h7.921v7.921zM35.239 43.214h-6.647v-6.648h6.647v6.648z" clip-rule="evenodd"/><path fill="#0080FF" d="M9.227 64.035c-1.336-.941-3.035-1.396-4.978-1.396H0v13.506h4.28c1.942 0 3.642-.485 4.977-1.487.729-.516 1.306-1.244 1.73-2.155.395-.91.607-2.003.607-3.187 0-1.184-.212-2.246-.607-3.157-.425-.91-1.001-1.639-1.76-2.124zm-6.738.88h1.335c1.488 0 2.702.304 3.643.88 1.032.638 1.548 1.821 1.548 3.521 0 1.76-.516 3.005-1.548 3.673-.88.576-2.095.88-3.612.88H2.489v-8.954zM14.539 62.457c-.425 0-.76.151-1.063.425a1.395 1.395 0 00-.425 1.032c0 .424.152.758.425 1.062.273.273.638.425 1.063.425.394 0 .758-.152 1.062-.425.273-.273.425-.638.425-1.063 0-.424-.152-.758-.425-1.031a1.572 1.572 0 00-1.062-.425zM15.722 66.615h-2.397v9.53h2.397v-9.53zM24.433 67.404c-.728-.637-1.517-1.032-2.398-1.032-1.335 0-2.428.455-3.277 1.366-.85.88-1.306 2.033-1.306 3.43 0 1.335.425 2.488 1.275 3.399.85.88 1.973 1.336 3.278 1.336.91 0 1.73-.243 2.368-.76v.213c0 .79-.213 1.396-.638 1.821-.425.425-1.001.638-1.73.638-1.092 0-1.79-.425-2.64-1.579l-1.64 1.579.03.06c.365.486.881.972 1.61 1.427.698.455 1.608.698 2.67.698 1.427 0 2.58-.425 3.43-1.305.85-.88 1.275-2.034 1.275-3.46v-8.65h-2.367v.819h.06zm-.637 5.645c-.425.486-.971.698-1.64.698-.697 0-1.213-.242-1.638-.698-.425-.485-.607-1.092-.607-1.851 0-.79.212-1.396.607-1.882s.971-.698 1.639-.698c.698 0 1.214.243 1.639.698.425.486.637 1.123.637 1.882 0 .759-.212 1.366-.637 1.851zM31.232 66.615h-2.398v9.53h2.398v-9.53zM30.048 62.457c-.425 0-.758.151-1.062.425a1.395 1.395 0 00-.425 1.032c0 .424.152.758.425 1.062.273.273.637.425 1.062.425.395 0 .76-.152 1.063-.425.273-.273.425-.638.425-1.063 0-.424-.152-.758-.425-1.031-.304-.274-.638-.425-1.063-.425zM36.483 64.035h-2.367v2.58H32.75V68.8h1.366v3.946c0 1.244.242 2.125.728 2.64.486.517 1.366.76 2.58.76.395 0 .79 0 1.153-.031h.122V73.93l-.82.03c-.576 0-.94-.091-1.123-.304-.182-.212-.273-.637-.273-1.274V68.77h2.246v-2.186h-2.246v-2.55zM52.357 62.608h-2.398v13.537h2.398V62.608zM76.578 72.746c-.425.486-.88.91-1.214 1.123-.334.212-.759.334-1.245.334-.698 0-1.274-.243-1.73-.79-.455-.515-.698-1.213-.698-2.003 0-.82.243-1.487.698-2.003.456-.516 1.032-.789 1.73-.789.76 0 1.579.486 2.277 1.305l1.578-1.517c-1.032-1.336-2.337-1.973-3.915-1.973-1.305 0-2.459.485-3.4 1.426-.94.941-1.396 2.125-1.396 3.551 0 1.427.486 2.61 1.396 3.552.941.94 2.064 1.426 3.4 1.426 1.73 0 3.126-.759 4.097-2.125l-1.578-1.517zM86.442 67.95c-.334-.485-.789-.85-1.366-1.123a4.591 4.591 0 00-1.973-.425c-1.335 0-2.428.486-3.247 1.457-.79.972-1.214 2.155-1.214 3.582 0 1.457.455 2.64 1.305 3.551.88.91 2.033 1.366 3.46 1.366 1.609 0 2.944-.668 3.946-1.943l.06-.06-1.578-1.518c-.152.182-.364.364-.546.546-.243.213-.456.395-.698.516a2.647 2.647 0 01-1.214.273c-.668 0-1.215-.182-1.64-.576-.394-.364-.637-.85-.697-1.457h6.343l.03-.88c0-.607-.09-1.214-.242-1.76a5.154 5.154 0 00-.729-1.549zm-5.25 2.246c.12-.455.333-.85.637-1.123.334-.333.758-.485 1.244-.485.577 0 1.032.152 1.336.485.273.304.455.668.485 1.123h-3.703zM95.639 67.343c-.729-.607-1.73-.94-2.975-.94-.789 0-1.548.181-2.215.515a3.927 3.927 0 00-1.64 1.518l.031.03 1.548 1.457c.637-1.001 1.335-1.366 2.276-1.366.516 0 .91.122 1.245.395.303.273.485.607.485 1.032v.455a6.064 6.064 0 00-1.76-.273c-1.184 0-2.155.273-2.883.82-.729.546-1.093 1.365-1.093 2.397 0 .91.303 1.609.94 2.155.638.516 1.397.79 2.308.79.91 0 1.76-.365 2.55-1.002v.789h2.367v-6.131c-.092-1.123-.456-2.034-1.184-2.64zm-4.25 5.16c.274-.182.668-.273 1.154-.273.577 0 1.184.121 1.821.334v.94c-.516.486-1.214.73-2.064.73-.425 0-.728-.092-.971-.274-.213-.182-.334-.395-.334-.698 0-.334.121-.577.394-.759zM105.958 67.525c-.667-.758-1.608-1.123-2.792-1.123-.941 0-1.73.273-2.307.82v-.577h-2.337v9.5h2.398v-5.25c0-.729.182-1.306.516-1.7.334-.395.789-.607 1.427-.607.546 0 .94.182 1.244.546.303.364.455.88.455 1.487v5.524h2.398v-5.524c0-1.305-.334-2.367-1.002-3.096zM46.954 67.343c-.728-.607-1.73-.94-2.974-.94-.79 0-1.548.181-2.216.515a3.927 3.927 0 00-1.639 1.518l.03.03 1.548 1.457c.638-1.001 1.336-1.366 2.277-1.366.516 0 .91.122 1.244.395.304.273.486.607.486 1.032v.455a6.065 6.065 0 00-1.76-.273c-1.184 0-2.155.273-2.884.82-.728.546-1.093 1.365-1.093 2.397 0 .91.304 1.609.941 2.155.638.516 1.397.79 2.307.79.91 0 1.76-.365 2.55-1.002v.789h2.367v-6.131c-.09-1.123-.455-2.034-1.184-2.64zm-4.249 5.16c.273-.182.668-.273 1.154-.273.576 0 1.183.121 1.82.334v.94c-.515.486-1.213.73-2.063.73-.425 0-.729-.092-.972-.274-.212-.182-.333-.395-.333-.698 0-.334.121-.577.394-.759zM61.068 76.358a6.982 6.982 0 010-13.962 6.982 6.982 0 010 13.962zm0-11.504a4.534 4.534 0 00-4.522 4.523 4.534 4.534 0 004.522 4.522 4.534 4.534 0 004.523-4.522 4.534 4.534 0 00-4.523-4.523z"/></svg>
